X:1
T:[ID 2-45a]
T:[ID 2-45a]
T:Bezeichnung standardisiert: Polonaise Polonoise In dieser Quelle auch als: Polon\"aise In dieser Quelle auch als: Polonaise
T:Urheber unbekannt Erstbeleg: 1767 (Datum in der schriftlichen Quelle) Datum in der hier transkribierten schriftlichen Quelle: 1776 - 1791
C:Urheber unbekannt
C:Erstbeleg: 1767 (Datum in der schriftlichen Quelle)
C:Datum in der hier transkribierten schriftlichen Quelle: 1776 - 1791
L:1/8
M:3/4
K:D
V:1 treble 
V:1
 a/g/f/e/ .d.d.d.d | db b2 a2 | a/g/f/e/ .d.d.d.d | e/d/c/B/ A2 A2 :: Aa ag/f/ g2 | Ag f/e/ f2 | %6
 Aa ag/f/ g2 | Ag gf/e/ f2 | ab/c'/ d'2 g2 | f/e/d/c/ d2 D2 :| %10

